icons/info-circle-filled.svg

<svg width="24" height="24" viewBox="0 0 24 24" fill="none" xmlns="http://www.w3.org/2000/svg">
<path d="M22 12C22 17.523 17.523 22 12 22C6.477 22 2 17.523 2 12C2 6.478 6.477 2 12 2C17.523 2 22 6.478 22 12ZM13.5 7.5C13.5 7.10218 13.342 6.72064 13.0607 6.43934C12.7794 6.15804 12.3978 6 12 6C11.6022 6 11.2206 6.15804 10.9393 6.43934C10.658 6.72064 10.5 7.10218 10.5 7.5C10.5 7.89782 10.658 8.27936 10.9393 8.56066C11.2206 8.84196 11.6022 9 12 9C12.3978 9 12.7794 8.84196 13.0607 8.56066C13.342 8.27936 13.5 7.89782 13.5 7.5ZM11 17.125C10.998 17.708 11.33 18 11.998 18C12.666 18 13 17.708 13 17.125V11.875C13 11.292 12.665 11 11.996 11C11.327 11 10.995 11.292 11 11.875V17.125Z" fill="#3A3A47"/>
</svg>

<svg xmlns="http://www.w3.org/2000/svg" width="24" height="24" viewBox="0 0 24 24">
    <path fill="#3A3A47" fill-rule="evenodd" d="M12 2c5.523 0 10 4.478 10 10 0 5.523-4.477 10-10 10S2 17.523 2 12C2 6.478 6.477 2 12 2zm-.004 9c-.669 0-1.001.292-.996.875v5.25c-.002.583.33.875.998.875.668 0 1.002-.292 1.002-.875v-5.25c0-.583-.335-.875-1.004-.875zM12 6a1.5 1.5 0 1 0 0 3 1.5 1.5 0 0 0 0-3z"/>
</svg>
